X: 16386
T: Gwanwitcha, The
R: reel
M: 4/4
K: Bminor
AB B/B/B fBeB|BBBB eBdB|cB B/B/B cBdB|AAdA cAdA|
AB B/B/B fBeB|BBBB eBdB|cB B/B/B cBdB|AAdA cAdA:|
B,DFA Bcd2|dcde fBcd|GGdG cdGd|FGdF EDFD|
B,DFA Bcd2|dcde fgfd|AAdA fgfd|deed fgfd:|
BBBB deBB|B/B/B AB GBFB|BBBB dfeA|A/A/A cA eAcA|
BBBB efBB|B/B/B ef BBfB|fgfd ddfd|ecAA Accd:|

